!!!COM: Bach, Johann Sebastian
!!!OPR: Joh. Seb. Bachs vierstimmige Choralges‰nge
!!!XEN: Four-part Chorales
!!!OTL: 32. Da der Herr Christ zu Tische sass
!!!SCT: BWV 285
!!!SCA: Thematisch-systematisches Verzeichnis der musikalischen Werke Johann Sebastian Bach: Bach-Werke-Verzeichnis (Schmieder)
!!!YOR: Bach Gesellschaft Edition xxxix
!!!ENC: Steven Rasmussen
!!!CDT: 1685/3//-1750/7/28/
!!!OCY: Deutschland
!!!YEC: Copyright (c) 1994, 2000 Center for Computer Assisted Research in the Humanities
!!!YEM: Rights to all derivative editions reserved
!!!YEN: United States of America
**kern	**silbe	**kern	**kern	**kern	**silbe
*I:[SOPRANO]	*I:[SOPRANO]	*I:[ALTO]	*I:[TENORE]	*I:[BASSO]	*I:[BASSO]
*clefG2	*	*clefG2	*clefGv2	*clefF4	*
*k[b-e-a-]	*	*k[b-e-a-]	*k[b-e-a-]	*k[b-e-a-]	*
*c:	*	*c:	*c:	*c:	*
*M4/4	*	*M4/4	*M4/4	*M4/4	*
4g	Da	8e-L	4c	4C	.
.	.	8fJ	.	.	.
=1	=1	=1	=1	=1	=1
4g	der	8gL	4.d	4BBn	.
.	.	8fJ	.	.	.
4g	Herr	4e-	.	4C	.
.	.	.	8c	.	.
4b-	Christ	4f	4B-	4D	.
4g	zu	8fL	4B-	4E-	.
.	.	8e-J	.	.	.
=2	=2	=2	=2	=2	=2
4b-	Ti-	4g	8B-L	4E-	.
.	.	.	8cJ	.	.
4bn	-sche	4f	4d	4D	.
4cc;	sass,	4e-;	4G;	4C;	.
4dd	zu-	4g	4d	4BBn	zu-
=3	=3	=3	=3	=3	=3
8ee-L	-letzt	4g	8cL	[2C	-letzt
8ddJ	.	.	8dJ	.	.
8ccL	das	4g	8e-L	.	.
8ddJ	.	.	8dJ	.	.
4ee-	O-	4g	4c	8C]	.
.	.	.	.	8E-	das
4dd	-ster-	4g	4Bn	8G	O-
.	.	.	.	8F	-ster-
=4	=4	=4	=4	=4	=4
4cc	-l√§mm-	4g	8cL	4E-	-l√§mm-
.	.	.	8BnJ	.	.
4cc	-lein	8gL	4c	4A-	-lein
.	.	8fJ	.	.	.
4bn;	ass,	4g;	4d;	4G;	ass,
4g	und	4d	4B	8GL	.
.	.	.	.	8FJ	.
=5	=5	=5	=5	=5	=5
8ccL	wollt'	4g	4c	8E-L	.
8ddJ	.	.	.	8DJ	.
4ee-	von	4g	4c	4C	.
4dd	hin-	8a-L	8cL	8FL	.
.	.	8gJ	8BnJ	8GJ	.
4cc	-nen	8gL	4c	4A-	.
.	.	8fJ	.	.	.
=6	=6	=6	=6	=6	=6
2bn	schei-	8gL	4d	4G	.
.	.	8a-	.	.	.
.	.	8g	4G	4GG	.
.	.	8fJ	.	.	.
4cc;	-den,	4e-;	4G;	4C;	.
4g	sein'n	8e-L	4c	8CL	.
.	.	8fJ	.	8DJ	.
=7	=7	=7	=7	=7	=7
4g	J√ºn-	4g	8cL	4.E-	.
.	.	.	8GJ	.	.
4an	-gern	4f	4c	.	.
.	.	.	.	16FLL	.
.	.	.	.	16E-JJ	.
4b-	er	8fL	8dL	8DL	.
.	.	8gJ	8cJ	8E-J	.
4a-	treu-	8gL	8cL	4F	.
.	.	8fJ	16dL	.	.
.	.	.	16cJJ	.	.
=8	=8	=8	=8	=8	=8
4g	-lich	8fL	8B-L	8GL	.
.	.	8e-J	8cJ	8A-J	.
4f	be-	8e-L	8FL	8B-L	.
.	.	8dJ	16B-L	8BB-J	.
.	.	.	16A-JJ	.	.
4e-;	-fahl,	4e-;	4G;	4C;	.
4e-	dass	4c	8GL	4C	.
.	.	.	8A-J	.	.
=9	=9	=9	=9	=9	=9
4b-	man	8e-L	8B-L	8GGL	.
.	.	8fJ	8A-J	8FFJ	.
4b-	all-	4g	8B-L	4EE-	.
.	.	.	8d-J	.	.
4cc	-zeit	4e-	8cL	8AA-L	.
.	.	.	8B-J	8GGJ	.
4dd	ver-	4f	4A-	4FF	.
=10	=10	=10	=10	=10	=10
4ee-	-k√ºnd'-	4g	4B-	8EE-L	.
.	.	.	.	8GGJ	.
4dd	-gen	4f	4B-	4BB-	.
4ee-;	soll	4g;	4B-;	4E-;	.
4ee-	sein'n	8gL	4c	4C	.
.	.	8a-J	.	.	.
=11	=11	=11	=11	=11	=11
4ff	Tod	8a-L	4d	8CL	.
.	.	8gJ	.	8BBnJ	.
4ee-	und	4g	8dL	4C	.
.	.	.	8cJ	.	.
4dd	bit-	8fL	8cL	4D	.
.	.	8a-J	8BnJ	.	.
4cc	-ter	8gL	8cL	8E-L	.
.	.	8fJ	8A-J	8FJ	.
=12	=12	=12	=12	=12	=12
4cc	Lei-	8e-L	2G	4G	.
.	.	16dL	.	.	.
.	.	16cJ	.	.	.
4bn	.	8d	.	4GG	.
.	.	8fJ	.	.	.
4cc;	-den.	(8fL	4G;	4C;	.
.	.	8en;J)	.	.	.
==|!	==|!	==|!	==|!	==|!	==|!
*-	*-	*-	*-	*-	*-
!!!RWG: Key is interpreted using the Humdrum key tool.
!!!END: 1994/05/13
!!!EMD: Converted from MuseData to Humdrum Dec 19, 2000, by Andreas Kornstaedt using muse2kern.
!!!EED: Craig Stuart Sapp
!!!EEV: 2024/03/31
!!!ONB: Some non-unicode characters
